X:1
T:Title
%%score { 1 | 2 }
L:1/8
Q:1/4=78
M:6/8
K:D
V:1 treble nm="Grand Piano"
V:2 bass 
V:1
 FFF [FA][FA][FA] | BBB [FA]3 | [Fd][Ac][GB] [FA]FD | [CE]3 [CA]3 | FFF [FA][FA][FA] | BBB [FA]3 | %6
w: J.~Lincoln~Hall * * * * *||||||
 [Fd][Ac][GB] [FA][A,DF][K:bass][F,D] | [G,CE]3 [F,D]3 | [FA][FA][FA] BBB | [FA]3 [Fd]3 | cde ABc | %11
w: |||||
 [GB]3 [FA]3 | FFF [FA][FA][FA] | BBB [FA]3 | [Fd][Ac][GB] [FA][A,DF][K:bass][F,D] | %15
w: ||||
[M:7/4] [G,CE]3 [F,D]3 z2 z2 z4 |] %16
w: |
V:2
 [D,A,D][D,A,D][D,A,D] [D,D][D,D][D,D] | [G,DG][G,DG][G,DG][K:bass] [D,D]3 | %2
 [D,A,][D,D][D,D] [D,D][D,A,D][D,F,] | [A,,A,]3 [A,,A,]3 | [D,A,D][D,A,D][D,A,D] [D,D][D,D][D,D] | %5
 [G,DG][G,DG][G,DG][K:bass] [D,D]3 | [D,A,][D,D][D,D] [D,D]D,D, | A,,3 D,3 | %8
 [D,D][D,D][D,D][K:treble] [G,DG][G,DG][G,DG] | [D,D]3 [D,D]3 | %10
 [A,EG][A,DG][A,CG] [A,CG][A,DG][A,EG] | [D,D]3 [D,D]3 | [D,A,D][D,A,D][D,A,D] [D,D][D,D][D,D] | %13
 [G,DG][G,DG][G,DG][K:bass] [D,D]3 | [D,A,][D,D][D,D] [D,D]D,D, |[M:7/4] A,,3 D,3 z2 z2 z4 |] %16

